X:702
T:
N:Ridmarsch,
S:efter »Florsen» i Burs.
O:Gotland, Burs
R:marsch
M:2/4
L:1/16
K:D
A2|d2(fa) (gf)(ed)|(ab)(ag) (fd)(fa)|d'2b^g e2^gb|a2(ec) A2(ce)|
d2(fa) (gf)(ed)|(ab)(ag) (fd)(fa)|d'2(b^g) e2(^gb)|a4 z2::a2|
d'd'aa bbgg|a2a2 e2 (ag)|(fe)(fg) a2 (fg)|a2d'2 a3 g|(fdfa) (ecef)|d4 z2:|

